!!!!SEGMENT: pl-sa--29-a-i-29--005_konigsperger-marianus--vesperae-ex-d-nisi-dominus.krn
!!!cenid: 17xx:542
!!!COM: Königsperger, Marianus
!!!COM-rismID: pe367346
!!!CDT: 1708/12/02-1769/10/09
!!!CNT: German
!!!OPR: Vesperae ex D
!!!OTL: Nisi Dominus
!!!OMV: 005
!!!PDT:
!!!AGN: Sacred; Vespers
!!!SMS-siglum: PL-SA
!!!SMS-shelfmark: 29/A I 29
!!!SMS-shelfwork: 001-005 M
!!!SMS-variant:
!!!SMS-altvar:
!!!NIFC-rismSourceID: 1001068253
!!!NIFC-islandoraID:
!!!URL-pdf-islandora:
!!!URL-scan: https://bc.bdsandomierz.pl/dlibra/publication/1262/edition/1230/content @EN{Scan in the Sandomierz Diocese Digital Library} @PL{Skany w portalu Cyfrowa Biblioteka Diecezjalna w Sandomierzu}
!!!ONB-nifc: UWAGA: części Vesperae: Domine ad adjuvandum, Dixit Dominus, Laudate pueri, Laetatus sum, Nisi Dominus, Lauda Jerusalem, Magnificat
!!!AIN: 3 empty 1 organ 2 violn 1 vox
!!!key:
**kern	**fba	**kern	**kern	**kern	**text	**kern	**text	**kern	**kern
*part7	*	*part6	*part5	*part4	*part4	*part3	*part3	*part2	*part1
*	*	*group3	*group3	*group2	*	*group2	*	*group1	*group1
*staff7	*	*staff6	*staff5	*staff4	*staff4	*staff3	*staff3	*staff2	*staff1
*Iorgan	*	*Ivioln	*Ivioln	*Iempty	*	*Ivox	*	*Iempty	*Iempty
*I"Organo	*	*I"Violino 2do	*I"Violino 1mo	*I"Baſso.	*	*I"Canto	*	*I"Clarino 2do Ex D.	*I"Clarino 1mo Ex D.
*I'org	*	*I'vl 2	*I'vl 1	*I'B	*	*I'S	*	*I'clno 2	*I'clno 1
*clefC1	*	*clefG2	*clefG2	*clefF4	*	*clefC1	*	*clefG2	*clefG2
*	*	*	*	*	*	*	*	*ITrd-1c-2	*ITrd-1c-2
*k[f#c#g#]	*	*k[f#c#g#]	*k[f#c#g#]	*k[f#c#g#]	*	*k[f#c#g#]	*	*k[f#c#g#]	*k[f#c#g#]
*A:	*	*A:	*A:	*A:	*	*A:	*	*A:	*A:
*M2/2	*	*M2/2	*M2/2	*M2/2	*	*M2/2	*	*M2/2	*M2/2
*met(C.|)	*	*met(c|)	*met(c|)	*met(c|)	*	*met(C.|)	*	*met(c|)	*met(c|)
=1	=1	=1	=1	=1	=1	=1	=1	=1	=1
*^	*	*	*	*	*	*	*	*	*
!LO:TX:b:Bi:t=Nisi Dominus	!	!	!LO:TX:b:i:t=Nisi Dominus	!LO:TX:b:i:t=Nisi Dominus	!	!	!	!LO:TX:a:t=P:problem=krzyżyki cc# f# g#	!	!
!LO:TX:a:t=P:problem=piony w dwugłosie nie zawsze się zgadzają	!	!	!LO:TX:a:i:t=Allabreve	!LO:TX:a:i:t=Allabreve	!	!	!	!LO:TX:a:t=P:problem="N" przed kluczem	!LO:TX:a:t=Nisi\n Tacet	!LO:TX:a:B:t=Nisi\n Tacet
1a	2re	.	2r	1a	2r	.	1a	(N)i-	1ryy	1ryy
*	*2\right	*	*	*	*2\right	*	*	*	*	*
.	[2a\	.	2a/	.	[2A\	Ni-	.	.	.	.
=2	=2	=2	=2	=2	=2	=2	=2	=2	=2	=2
1b	2a\]	.	2a/	1b	2A\]	.	1b	-si	1ryy	1ryy
.	2g#\	.	2g#/	.	2G#\	-si	.	.	.	.
=3	=3	=3	=3	=3	=3	=3	=3	=3	=3	=3
4cc#/	2a\	.	2a/	4cc#\	4A\	Do-	4.cc#\	Do-	1ryy	1ryy
2a/	.	.	.	2a/	8A\	-mi-	.	.	.	.
.	.	.	.	.	8A\	-nus	8a\	-mi-	.	.
.	4re	.	4r	.	4r	.	4a\	-nus	.	.
8dd/L	4f#\	.	4f#/	(8dd\L	4F#\	ae-	8dd\L	e-	.	.
8cc#/J	.	.	.	8cc#\J)	.	.	8cc#\J	.	.	.
=4	=4	=4	=4	=4	=4	=4	=4	=4	=4	=4
4b/	4f#\	.	4f#/	4b\	4F#\	-di-	4b\	-di-	1ryy	1ryy
*	*	*	*	*	*	*	*2\right	*	*	*
2g#/	8g#\L	.	8g#/L	2g#/	(8G#\L	-fi-	2g#\	-fi-	.	.
.	8f#\J	.	8f#/J	.	8F#\J)	.	.	.	.	.
.	[2e\	.	2e/	.	[2E\	-ca-	.	.	.	.
8cc#/L	.	.	.	(8cc#\L	.	.	(8cc#\L	-ca-	.	.
8b/J	.	.	.	8b\J)	.	.	8b\J)	.	.	.
=5	=5	=5	=5	=5	=5	=5	=5	=5	=5	=5
4a/	4e\]	.	4e/	4a/	4E\]	.	4a\	.	1ryy	1ryy
2f#/	8f#\L	.	8f#/L	2f#/	8F#\L	.	2f#/	.	.	.
.	8e\J	.	8e/J	.	8E\J	.	.	.	.	.
.	2d\	.	2d/	.	[2D\	.	.	.	.	.
8b/L	.	.	.	(8b/L	.	.	8b\L	.	.	.
8a/J	.	.	.	8a/J)	.	.	8a\J	.	.	.
!LO:LB:g=original	!LO:LB:g=original	!	!	!	!	!	!	!	!	!
=6	=6	=6	=6	=6	=6	=6	=6	=6	=6	=6
4g#/	4d\	.	4d/	4g#/	4D\]	.	4g#/	.	1ryy	1ryy
2e/	8e\L	.	8e/L	2e/	8E\L	.	2e/	.	.	.
.	8d\J	.	8d/J	.	8D\J	.	.	.	.	.
.	4c#\	.	4c#/	.	4C#/	-ve-	.	.	.	.
8f#/L	4B\	.	4B/	(8f#/L	4BB/	-rit	8f#/	-ve-	.	.
8g#/J	.	.	.	8g#/J)	.	.	8g#/	-rit	.	.
=7	=7	=7	=7	=7	=7	=7	=7	=7	=7	=7
4a/	4c#\	.	4c#/	4a/	4C#/	Do-	2a\	Do-	1ryy	1ryy
4a/	4A\	.	4A/	4a/	4AA/	-mum	.	.	.	.
4cc#/	2r	.	2rg	4cc#\	2r	.	(4cc#\	.	.	.
4dd#X/	.	.	.	4dd#X\	.	.	4dd#X\)	.	.	.
!	!	!	!LO:LB:g=original	!	!	!	!	!	!	!
=8	=8	=8	=8	=8	=8	=8	=8	=8	=8	=8
4ee/	1e	.	1e	4ee\	1E	In	4ee\	.	1ryy	1ryy
4b/	.	.	.	4b\	.	.	4b\	.	.	.
!	!	!	!	!LO:LB:g=original	!	!	!	!	!	!
*	*	*	*	*2\right	*	*	*	*	*	*
2ee/	.	.	.	[2ee\	.	.	4ee\	.	.	.
.	.	.	.	.	.	.	4ee\	-mum	.	.
=9	=9	=9	=9	=9	=9	=9	=9	=9	=9	=9
2ee/	1f#	.	1f#	2ee\]	1F#	va-	(2ee\	in	1ryy	1ryy
2dd#X/	.	.	.	2dd#X\	.	.	2dd#X\)	va-	.	.
=10	=10	=10	=10	=10	=10	=10	=10	=10	=10	=10
2ee/	4g#\	.	4g#/	2ee\	4G#\	.	2ee\	-num	1ryy	1ryy
!	!	!	!	!	!LO:LB:g=original	!	!	!	!	!
.	2e\	.	2e/	.	4E\	-num	.	.	.	.
4rcc	.	.	.	4r	4E\	la-	4r	.	.	.
4cc#/	8a\L	.	8a/L	4cc#\	8A\	-bo-	4cc#\	la-	.	.
.	8g#\J	.	(8g#/J	.	8G#\	-ra-	.	.	.	.
!	!	!	!	!	!	!	!LO:LB:g=original	!	!	!
=11	=11	=11	=11	=11	=11	=11	=11	=11	=11	=11
4cc#/	4f#\	.	4f#/)	4cc#\	4F#\	-ve-	4cc#\	-bo-	1ryy	1ryy
!LO:SIC:v:s=8dd#	!	!	!	!	!	!	!	!	!	!
8dd/L	2d#X\	.	2d#X/	8dd#X\L	4D#X\	-runt	(8dd#X\L	-ra-	.	.
8cc#/J	.	.	.	8cc#\J	.	.	8cc#\J)	.	.	.
2b/	.	.	.	[2b\	4D#\	qui	[2b\	-ve-	.	.
.	8g#\L	.	8g#/L	.	(8G#\L	ae-	.	.	.	.
.	8f#\J	.	8f#/J	.	8F#\J)	.	.	.	.	.
=12	=12	=12	=12	=12	=12	=12	=12	=12	=12	=12
4b/	4e\	.	4e/	4b\]	4E\	-di-	4b\]	.	1ryy	1ryy
8cc#/L	2c#\	.	2c#/	8cc#\L	2C#/	.	8cc#\L	.	.	.
8b/J	.	.	.	8b\J	.	.	8b\J	.	.	.
2a/	.	.	.	[2a/	.	.	4a\	-runt	.	.
.	8f#\L	.	8f#/L	.	8F#\L	.	4a\	quae	.	.
.	8e\J	.	8e/J	.	8E\J	.	.	.	.	.
=13	=13	=13	=13	=13	=13	=13	=13	=13	=13	=13
4a/	4d#X\	.	4d#X/	4a/]	4D#X/	.	4a\	ae-	1ryy	1ryy
8b/L	2B\	.	2B/	(8b/L	2BB/	.	8b\L	-di-	.	.
8a/J	.	.	.	8a/J)	.	.	8a\J	.	.	.
!LO:LB:g=original	!LO:LB:g=original	!	!	!	!	!	!	!	!	!
4g#/	.	.	.	4g#/	.	.	4g#/	.	.	.
4f#/	8c#\L	.	8c#/L	4f#/	8C#/L	.	4f#/	.	.	.
.	8d#X\J	.	8d#/J	.	8D#/J	.	.	.	.	.
=14	=14	=14	=14	=14	=14	=14	=14	=14	=14	=14
4g#/	4e\	.	4e/	4g#X/	2E\	.	4g#\	.	1ryy	1ryy
4ee/	4e\	.	4e/	4ee\	.	.	4ee\	.	.	.
4ddn/	4f#\	.	4f#/	4dd\	4F#\	-fi-	4ddn\	-fi-	.	.
4b/	4g#\	.	4g#/	4b\	4G#\	-cant	4b\	-cant	.	.
=15	=15	=15	=15	=15	=15	=15	=15	=15	=15	=15
2cc#/	2a\	.	2.a/	2.cc#\	4A\	e-	4cc#\	e-	1ryy	1ryy
.	.	.	.	.	4A\	-am	4cc#\	-am	.	.
*clefF4	*	*	*	*	*	*	*	*	*	*
*k[f#c#g#]	*	*	*	*	*	*	*	*	*	*
[2A\	2ryy	.	.	.	4r	.	(2cc#\	Va-	.	.
.	.	.	4e/	4cc#\	[4A\	Va-	.	.	.	.
*v	*v	*	*	*	*	*	*	*	*	*
=16	=16	=16	=16	=16	=16	=16	=16	=16	=16
2A\]	4 2	2f#/	2dd\	2A\]	.	2dd\)	.	1ryy	1ryy
2G#X\	6	4e/	4b\	4G#\	-num	4b\	-num	.	.
.	5	4d/	4b\	4G#\	est	4b\	est	.	.
=17	=17	=17	=17	=17	=17	=17	=17	=17	=17
2A\	.	4c#/	4a/	4A\	vo-	4a\	vo-	1ryy	1ryy
.	.	4e/	2cc#\	4A\	-bis	4cc#\	-bis	.	.
4r	.	4ee\	.	4r	.	4r	.	.	.
4F#\	6	(8ff#\L	4aa\	[4F#\	a-	4a\	an-	.	.
.	5	8ee\J)	.	.	.	.	.	.	.
!	!	!LO:LB:g=original	!	!	!	!	!	!	!
=18	=18	=18	=18	=18	=18	=18	=18	=18	=18
4F#\	4_ 2_	4dd\	4aa\	4F#\]	.	4g#\	.	1ryy	1ryy
*	*	*2\right	*	*	*	*	*	*	*
8G#\L	.	2dd\	2bb\	8G#\L	-te	2b\	-te	.	.
8F#\J	X X	.	.	8F#\J	.	.	.	.	.
2E\	.	.	.	[2E\	lu-	.	.	.	.
.	.	(8ee\L	4gg#\	.	.	4g#X/	lu-	.	.
.	.	8dd\J)	.	.	.	.	.	.	.
!	!	!	!LO:LB:g=original	!	!	!	!	!	!
=19	=19	=19	=19	=19	=19	=19	=19	=19	=19
4E\	.	2.cc#\	4ff#\	4E\]	.	4f#/	.	1ryy	1ryy
8F#\L	.	.	4aa\	8F#\L	-cem	4a/	.	.	.
8E\J	.	.	.	8E\J	.	.	.	.	.
!	!	!	!	!LO:LB:g=original	!	!	!	!	!
[2D\	6	.	4ff#\	[2D\	ſur-	2f#/	.	.	.
.	5	(8dd\L	4f#/	.	.	.	.	.	.
.	.	8cc#\J)	.	.	.	.	.	.	.
=20	=20	=20	=20	=20	=20	=20	=20	=20	=20
4D\]	4 2	4b/	2.b/	4D\]	.	1b	.	1ryy	1ryy
!	!	!LO:N:vis=2.	!	!	!	!	!	!	!
8E\L	.	2g#/	.	8E\L	.	.	.	.	.
8D\J	.	.	.	8D\J	.	.	.	.	.
4C#/	.	.	.	4C#/	.	.	.	.	.
4BB/	.	4d/	4b/	4BB/	.	.	.	.	.
!	!	!	!	!	!	!LO:LB:g=original	!	!	!
=21	=21	=21	=21	=21	=21	=21	=21	=21	=21
4C#/	6	4e/	4a/	4C#/	.	4a\	.	1ryy	1ryy
4AA/	.	2e/	4e/	8AA/	-ge-	4e/	-cem	.	.
.	.	.	.	8AA/	-re	.	.	.	.
!LO:TX:a:t=P:problem=zamazana kartka	!	!	!	!	!	!	!	!	!
2ryy	.	.	4.a/	2r	.	4.a\	sur-	.	.
.	.	4f#/	.	.	.	.	.	.	.
.	.	.	8a/	.	.	8a\	-ge-	.	.
=22	=22	=22	=22	=22	=22	=22	=22	=22	=22
1E	.	4g#/	8g#/L	2E\	Sur-	2g#\	-re	1ryy	1ryy
.	.	.	8e/J	.	.	.	.	.	.
.	.	4e/	2ee\	.	.	.	.	.	.
.	.	2g#/	.	4E\	-gi-	2ee\	Cum	.	.
.	.	.	[4ee\	4E\	-te	.	.	.	.
=23	=23	=23	=23	=23	=23	=23	=23	=23	=23
1F#	7	1a	2ee\]	2F#\	post-	4.ee\	de-	1ryy	1ryy
.	.	.	.	.	.	8ee\	-de-	.	.
.	6\	.	2dd#X\	4F#\	-q(am)	4dd#X\	-rit	.	.
.	.	.	.	4F#\	se-	4dd#\	di-	.	.
=24	=24	=24	=24	=24	=24	=24	=24	=24	=24
4G#\	6	4g#/	2ee\	4G#\	-de-	4ee\	-lec-	1ryy	1ryy
2E\	.	2b\	.	4E\	-ri-	4ee\	-tis	.	.
.	.	.	4r	4E\	-tis	4r	.	.	.
8A\L	.	4cc#\	[4cc#\	8A\L	qui	[4cc#\	su-	.	.
8G#\J	.	.	.	(8G#\J	.	.	.	.	.
=25	=25	=25	=25	=25	=25	=25	=25	=25	=25
4F#\	6	4a/	4cc#\]	4F#\)	man-	4cc#\]	.	1ryy	1ryy
2D#X\	.	4f#/	8dd#X\L	4D#X\	-du-	8dd#X\L	-is	.	.
.	.	.	8cc#\J	.	.	8cc#\J	.	.	.
.	.	[2g#X/	[2b\	4D#\	-ca-	[2b\	som-	.	.
8G#\L	.	.	.	8G#\L	-tis	.	.	.	.
8F#\J	.	.	.	(8F#\J	.	.	.	.	.
=26	=26	=26	=26	=26	=26	=26	=26	=26	=26
4E\	.	4g#/]	4b\]	4E\)	Pa-	4b\]	.	1ryy	1ryy
!	!	!	!	!LO:SIC:l:s=-nem:v	!	!	!	!	!
2C#/	x 8	4e/	8cc#\L	2C#/	-nen	8cc#\L	.	.	.
.	.	.	8b\J	.	.	8b\J	.	.	.
.	6_ 4_	[2f#/	2a/	.	.	[2a\	.	.	.
8F#\L	.	.	.	(8F#\L	do-	.	.	.	.
8E\J	X X	.	.	8E\J	.	.	.	.	.
=27	=27	=27	=27	=27	=27	=27	=27	=27	=27
4D#X/	.	4f#/]	4a/	4D#X/)	-lo-	4a\]	.	1ryy	1ryy
2BB/	8	4d#X/	(8b/L	2BB/	.	8b\L	.	.	.
.	.	.	8a/J)	.	.	8a\J	.	.	.
.	6_ 4_	4e/	4g#/	.	.	4g#/	.	.	.
!	!	!LO:TX:b:t=cito Verte	!	!	!	!	!	!	!
8C#/L	.	4f#/	4f#/	8C#/L	.	4f#/	.	.	.
8D#X/J	X X	.	.	8D#X/J	.	.	.	.	.
!	!	!LO:PB:g=original	!	!	!	!	!	!	!
=28	=28	=28	=28	=28	=28	=28	=28	=28	=28
2E\	.	4g#/	4g#/	2E\	.	4g#/	.	1ryy	1ryy
.	.	4g#/	4ee\	.	.	4ee\	.	.	.
4F#\	-n	4a/	4dd\	4F#\	.	4ddn\	.	.	.
.	6	.	.	.	.	.	.	.	.
4G#\	.	4e/	4b\	4G#\	.	4b\	.	.	.
!	!	!	!	!LO:LB:g=original	!	!	!	!	!
=29	=29	=29	=29	=29	=29	=29	=29	=29	=29
2A\	5_	1a	1a	4A\	-ris	4cc#\	-num	1ryy	1ryy
.	.	.	.	4A\	ec-	4a\	ec-	.	.
2A\	.	.	.	4A\	-ce	4a\	-ce	.	.
!	!	!	!	!LO:SIC:l:s=hae-:v	!	!	!	!	!
.	X	.	.	4A\	he-	4a\	hae-	.	.
!	!	!	!LO:LB:g=original	!	!	!	!	!	!
=30	=30	=30	=30	=30	=30	=30	=30	=30	=30
2A\	4 2	1b	1b	4A\	-re-	4b\	-re-	1ryy	1ryy
!	!	!	!	!	!	!LO:LB:g=original	!	!	!
.	.	.	.	8A\	-di-	8b\	-di-	.	.
.	.	.	.	8A\	-tas	8b\	-tas	.	.
2G#\	-n5	.	.	4G#\	Do-	4b\	Do-	.	.
.	.	.	.	8G#\	-mi-	8b\	-mi-	.	.
.	.	.	.	8G#\	-ni	8b\	-ni	.	.
=31	=31	=31	=31	=31	=31	=31	=31	=31	=31
2A\	.	4cc#\	4cc#\	4A\	Fi-	4cc#\	Fi-	1ryy	1ryy
.	.	2a/	2a\	8A\	-li-	8a\	-li-	.	.
.	.	.	.	8A\	-j	8a\	-j	.	.
4r	.	.	.	4r	.	4a\	mer-	.	.
4F#\	4_ 2_	(8dd\L	(8dd\L	[4F#\	mer-	(8dd\L	.	.	.
.	.	8cc#\J)	8cc#\J)	.	.	8cc#\J)	.	.	.
!LO:LB:g=original	!	!	!	!	!	!	!	!	!
=32	=32	=32	=32	=32	=32	=32	=32	=32	=32
4F#\	.	4b/	4b\	4F#\]	.	4b\	-ses	1ryy	1ryy
8G#\L	X X	2g#/	2g#/	8G#\L	-ces	4g#\	fru-	.	.
8F#\J	.	.	.	8F#\J	.	.	.	.	.
[<2E\	3	.	.	4E\	fruc-	4g#\	-c(tus)	.	.
.	.	8e/L	(8cc#\L	4E\	-t(us)	(8cc#\L	ven-	.	.
.	-n5	8d/J	8b\J)	.	.	8b\J)	.	.	.
=33	=33	=33	=33	=33	=33	=33	=33	=33	=33
4E\]	4_ 2_	4c#/	4a/	4E\	Ven-	4a\	.	1ryy	1ryy
8F#\L	.	2f#/	2f#/	(8F#\L	.	2f#/	.	.	.
8E\J	X X	.	.	8E\J)	.	.	.	.	.
[<2D\	3	.	.	[2D\	.	.	.	.	.
.	.	8d/L	(8b/L	.	.	(8b\L	.	.	.
.	-n5	8c#/J	8a/J)	.	.	8a\J)	.	.	.
=34	=34	=34	=34	=34	=34	=34	=34	=34	=34
4D\]	4_ 2_	4B/	4g#/	4D\]	.	4g#/	.	1ryy	1ryy
8E\L	.	2e/	2e/	8E\L	.	2e/	.	.	.
8D\J	X X	.	.	8D\J	.	.	.	.	.
4C#/	.	.	.	4C#/	.	.	.	.	.
4BB/	.	8f#/L	8f#/L	4BB/	.	8f#/L	.	.	.
.	.	8g#/J	8g#/J	.	.	8g#/J	.	.	.
=35	=35	=35	=35	=35	=35	=35	=35	=35	=35
8C#/L	6	4a/	4a/	4C#/	.	2a\	-tris	1ryy	1ryy
8BB/J	.	.	.	.	.	.	.	.	.
4AA/	.	2aa\	2aa\	4AA/	-tris	.	.	.	.
4r	.	.	.	2r	.	2r	.	.	.
4G#\	.	[4aa\	[4aa\	.	.	.	.	.	.
=36	=36	=36	=36	=36	=36	=36	=36	=36	=36
4F#\	-n	8aa\L]	8aa\L]	00r	.	00r	.	1ryy	1ryy
.	.	8gg#\J	8gg#\J	.	.	.	.	.	.
8E\L	.	2aa\	2aa\	.	.	.	.	.	.
8D\J	.	.	.	.	.	.	.	.	.
4C#/	6	.	.	.	.	.	.	.	.
4AA/	.	4aa\	4aa\	.	.	.	.	.	.
=37	=37	=37	=37	=37	=37	=37	=37	=37	=37
4D\	8_ 6\_	4ff#\	4bb\	.	.	.	.	1ryy	1ryy
4D\	.	4ff#\	8ccc#\L	.	.	.	.	.	.
.	.	.	8ddd\J	.	.	.	.	.	.
4E\	6 4	4ee\	8ccc#\L	.	.	.	.	.	.
.	.	.	8aa\	.	.	.	.	.	.
4EE/	5 #	4b\	8bb\	.	.	.	.	.	.
.	.	.	8gg#\J	.	.	.	.	.	.
=38	=38	=38	=38	=38	=38	=38	=38	=38	=38
4.AA/	.	4.cc#\	4.aa\	.	.	.	.	1ryy	1ryy
8F#\|	.	8f#/	8f#/	.	.	.	.	.	.
8E\L|	.	8e/L	8e/L	.	.	.	.	.	.
8D\|	.	8d/	8d/	.	.	.	.	.	.
8C#\|	.	8c#/	8c#/	.	.	.	.	.	.
8BB\J|	.	8B/J	8B/J	.	.	.	.	.	.
!	!	!LO:LB:g=original	!LO:LB:g=original	!	!	!	!	!	!
=39	=39	=39	=39	=39	=39	=39	=39	=39	=39
2AA/	.	4A/	4A/	.	.	.	.	1ryy	1ryy
.	.	(4cc#\	(4ee\	.	.	.	.	.	.
2r	.	4b\	4dd\	.	.	.	.	.	.
.	.	4a\)	4cc#\)	.	.	.	.	.	.
!LO:LB:g=original	!	!	!	!	!	!	!	!	!
=40	=40	=40	=40	=40	=40	=40	=40	=40	=40
2E\	.	4r	4r	00r	.	00r	.	1ryy	1ryy
.	.	4b\	(4dd\	.	.	.	.	.	.
2r	.	(4a\	4cc#\	.	.	.	.	.	.
.	.	4g#\)	4b\)	.	.	.	.	.	.
=41	=41	=41	=41	=41	=41	=41	=41	=41	=41
2AA/	.	4r	4r	.	.	.	.	1ryy	1ryy
.	.	4cc#\	(4ee\	.	.	.	.	.	.
2r	.	(4b\	4dd\	.	.	.	.	.	.
.	.	4a\)	4cc#\)	.	.	.	.	.	.
=42	=42	=42	=42	=42	=42	=42	=42	=42	=42
2E\	.	4r	4r	.	.	.	.	1ryy	1ryy
.	.	4b\	(4dd\	.	.	.	.	.	.
2r	.	(4a\	4cc#\	.	.	.	.	.	.
.	.	4g#\)	(4b\)	.	.	.	.	.	.
=43	=43	=43	=43	=43	=43	=43	=43	=43	=43
4A\	-n_	4.aa\	4.aa\)	.	.	.	.	1ryy	1ryy
4A\	.	.	.	.	.	.	.	.	.
.	.	8a/	8a/	.	.	.	.	.	.
4G#\	.	4.aa\	4.aa\	.	.	.	.	.	.
4G#\	X	.	.	.	.	.	.	.	.
.	.	8a/	8a/	.	.	.	.	.	.
=44	=44	=44	=44	=44	=44	=44	=44	=44	=44
4.F#\	-n	4.aa\	4.aa\	0r	.	00r	.	1ryy	1ryy
8D\	6	8ff#\	8ff#\	.	.	.	.	.	.
4C#\	.	8ee\L	8ee\L	.	.	.	.	.	.
.	.	8dd\	8dd\	.	.	.	.	.	.
4E\	.	8cc#\	8cc#\	.	.	.	.	.	.
.	.	8b\J	8b\J	.	.	.	.	.	.
=45	=45	=45	=45	=45	=45	=45	=45	=45	=45
4.AA/	.	4.a/	4.a/	.	.	.	.	1ryy	1ryy
8F#\	.	8f#/	8f#/	.	.	.	.	.	.
8E\L	.	8e/L	8e/L	.	.	.	.	.	.
8D\	.	8d/	8d/	.	.	.	.	.	.
8C#\	.	8c#/	8c#/	.	.	.	.	.	.
8BB\J	.	8B/J	8B/J	.	.	.	.	.	.
=46	=46	=46	=46	=46	=46	=46	=46	=46	=46
4AA/	.	4A/	4A/	4r	.	.	.	1ryy	1ryy
4A\	.	2a/	2a/	4A\	Si-	.	.	.	.
4A\	.	.	.	4A\	-cut	.	.	.	.
4G#\	.	4a/	[4a/	4A\	ſa-	.	.	.	.
!	!	!	!	!LO:LB:g=original	!	!	!	!	!
=47	=47	=47	=47	=47	=47	=47	=47	=47	=47
2F#\	-n	(8a/L	8a/L]	(8A\L	-git-	.	.	1ryy	1ryy
.	.	8g#/J)	8g#/J	8G#\J)	.	.	.	.	.
.	.	2a/	2a/	2A\	-tae	.	.	.	.
4r	.	.	.	.	.	.	.	.	.
4C#/	6	4a/	4a/	4A\	in	.	.	.	.
=48	=48	=48	=48	=48	=48	=48	=48	=48	=48
4D\	8_ 6_	4f#/	4b\	4.B\	ma-	00r	.	1ryy	1ryy
4D\	.	4f#/	8b\L	.	.	.	.	.	.
.	.	.	8dd\J	8d\	-nu	.	.	.	.
!	!	!	!LO:LB:g=original	!	!	!	!	!	!
4E\	6 4	4e/	8cc#\L	(8c#\L	.	.	.	.	.
.	.	.	(8a\	8A\J	.	.	.	.	.
4EE/	5 #	4B/	8b\)	8B\L)	po-	.	.	.	.
.	.	.	8g#\J	8G#\J	.	.	.	.	.
!	!	!LO:LB:g=original	!	!	!	!	!	!	!
=49	=49	=49	=49	=49	=49	=49	=49	=49	=49
4.AA/	.	4.c#/	4.a/	4A\	-ten-	.	.	1ryy	1ryy
.	.	.	.	4A\	-tis	.	.	.	.
8F#\|	.	8f#/	8f#/	.	.	.	.	.	.
8E\L|	.	8e/L	8e/L	2r	.	.	.	.	.
8D\|	.	8d/	8d/	.	.	.	.	.	.
8C#\|	.	8c#/	8c#/	.	.	.	.	.	.
8BB\J|	.	8B/J	8B/J	.	.	.	.	.	.
!LO:LB:g=original	!	!	!	!	!	!	!	!	!
=50	=50	=50	=50	=50	=50	=50	=50	=50	=50
!	!	!	!LO:TX:a:t=P:problem=mixed beam	!	!	!	!	!	!
4AA/	.	8A/L	8A/L	4e\	i-	.	.	1ryy	1ryy
.	.	8e/	8cc#\	.	.	.	.	.	.
4AA/	.	8a/	8cc#\	4E\	-ta	.	.	.	.
.	.	8a/J	8cc#\J	.	.	.	.	.	.
4AA/	.	8cc#\L	8ee\L	4E\	Fi-	.	.	.	.
.	.	8cc#\	8ee\	.	.	.	.	.	.
4AA/	.	8ee\	8aa\	8E\	-li-	.	.	.	.
.	.	8cc#\J	8aa\J	8E\	-j	.	.	.	.
=51	=51	=51	=51	=51	=51	=51	=51	=51	=51
4D/	.	2a/	2ff#\	2F#\	ex-	.	.	1ryy	1ryy
4D/	.	.	.	.	.	.	.	.	.
4D/	.	2ff#\	2aa\	2A\	-cuſ-	.	.	.	.
4D/	.	.	.	.	.	.	.	.	.
=52	=52	=52	=52	=52	=52	=52	=52	=52	=52
4D/	.	4ff#\	4ddd\	4d\	-so-	00r	.	1ryy	1ryy
4D/	.	4a/	2ff#\	2F#\	.	.	.	.	.
4D/	.	4a/	.	.	.	.	.	.	.
4D/	.	4a/	(8ee\L	(8E\L	.	.	.	.	.
.	.	.	8dd\J)	8D\J)	.	.	.	.	.
=53	=53	=53	=53	=53	=53	=53	=53	=53	=53
4C#/	6	4cc#\	4ee\	4E\	.	.	.	1ryy	1ryy
4C#/	.	4ee\	2aa\	2A\	.	.	.	.	.
4C#/	.	4ee\	.	.	.	.	.	.	.
4AA/	.	[4ee\	[<4ccc#\	4c#\	.	.	.	.	.
=54	=54	=54	=54	=54	=54	=54	=54	=54	=54
4AA/	.	4ee\]	4ccc#\]	4c#\	.	.	.	1ryy	1ryy
4AA/	.	2cc#\	2ee\	2E\	.	.	.	.	.
4AA/	.	.	.	.	.	.	.	.	.
4AA/	.	(8b\L	(8dd\L	8D/L	.	.	.	.	.
.	.	8a\J)	8cc#\J)	8C#/J	.	.	.	.	.
=55	=55	=55	=55	=55	=55	=55	=55	=55	=55
4BB/	-n	4f#/	4dd\	4D\	.	.	.	1ryy	1ryy
4E\	#	2g#/	2bb\	2B\	.	.	.	.	.
4E\	.	.	.	.	.	.	.	.	.
4E\	7 5	4b\	4gg#\	4d\	.	.	.	.	.
=56	=56	=56	=56	=56	=56	=56	=56	=56	=56
4A\	.	4cc#\	4aa\	4c#\	.	2r	.	1ryy	1ryy
4E\	.	4b\	4gg#\	4B\	-rum	.	.	.	.
4r	.	2r	2r	2r	.	4r	.	.	.
4C#/	6	.	.	.	.	4a\	Be-	.	.
!	!	!	!	!	!	!LO:LB:g=original	!	!	!
=57	=57	=57	=57	=57	=57	=57	=57	=57	=57
!	!	!	!	!LO:TX:a:t=1	!	!	!	!	!
2D\	6	1r	1r	1r	.	2b\	-a-	1ryy	1ryy
2E\	#	.	.	.	.	2g#\	-tus	.	.
!	!	!	!	!LO:LB:g=original	!	!	!	!	!
=58	=58	=58	=58	=58	=58	=58	=58	=58	=58
2AA/	.	8r	8r	2r	.	2a\	Vir	1ryy	1ryy
.	.	8cc#\L	8aa\L	.	.	.	.	.	.
.	.	8b\	8gg#\	.	.	.	.	.	.
.	.	8cc#\J	8aa\J	.	.	.	.	.	.
4r	.	4a/	4cc#\	4r	.	4r	.	.	.
4A\	.	4r	4r	4A\	Be-	4cc#\	Be-	.	.
!	!	!	!LO:LB:g=original	!	!	!	!	!	!
=59	=59	=59	=59	=59	=59	=59	=59	=59	=59
2D\	8 6	1r	1r	2B\	-a-	2dd\	-a-	1ryy	1ryy
2E\	#	.	.	2G#\	-tus	2b\	-tus	.	.
=60	=60	=60	=60	=60	=60	=60	=60	=60	=60
2AA/	.	2r	2r	2A\	Vir	2cc#\	Vir	1ryy	1ryy
!	!	!LO:LB:g=original	!	!	!	!	!	!	!
4C#/	6	[2a/	2a/	4A\	qui	2r	.	.	.
4AA/	.	.	.	4A\	im-	.	.	.	.
!LO:LB:g=original	!	!	!	!	!	!	!	!	!
=61	=61	=61	=61	=61	=61	=61	=61	=61	=61
2E\	4	4a/]	2b\	4A\	-ple-	2r	.	1ryy	1ryy
.	3	8g#/L	.	(8G#\L	-vit	.	.	.	.
.	.	8f#/J	.	8F#\J)	.	.	.	.	.
4r	.	4g#/	[2ee\	4G#\	de-	4b\	qui	.	.
4E\	.	4e/	.	4E\	-si-	4ee\	im-	.	.
=62	=62	=62	=62	=62	=62	=62	=62	=62	=62
2B\	4	4f#/	4ee\]	4F#\	-de-	4ee\	-ple-	1ryy	1ryy
.	3	8g#/L	(8dd\L	8G#\L	.	(8dd\L	-vit	.	.
.	.	8a/J	8cc#\J)	8A\J	.	8cc#\J)	.	.	.
4r	.	[2b/	4dd\	[2B\	.	4dd\	de-	.	.
4B\	.	.	4b\	.	.	4b\	-si-	.	.
=63	=63	=63	=63	=63	=63	=63	=63	=63	=63
2F#\	4	4b/]	4cc#\	4B\]	.	4cc#\	-de-	1ryy	1ryy
.	3	8a/L	(8dd\L	8A\L	.	(8dd\L	.	.	.
.	.	8g#/J	8ee\J)	8G#\J	.	8ee\J)	.	.	.
4r	.	4a/	[2ff#\	4A\	.	[2ff#\	.	.	.
4F#\	.	4f#/	.	4F#\	.	.	.	.	.
=64	=64	=64	=64	=64	=64	=64	=64	=64	=64
2c#\	4	4g#/	4ff#\]	4G#X\	.	4ff#\]	.	1ryy	1ryy
.	3	8a/L	(8ee\L	8A\L	.	8ee\L	.	.	.
.	.	8b/J	8dd\J)	8B\J	.	8dd\J	.	.	.
4r	.	[2cc#\	2ee\	2c#\	.	[2ee\	.	.	.
4A#X\	6 5	.	.	.	.	.	.	.	.
=65	=65	=65	=65	=65	=65	=65	=65	=65	=65
2B\	4 9	4cc#\]	4ee\	4.c#\	.	4.ee\]	.	1ryy	1ryy
.	5 8	2b\	2dd\	.	.	.	.	.	.
.	.	.	.	8B\	-ri-	8dd\	-um	.	.
4r	.	.	.	4B\	-um	4dd\	Su-	.	.
4G#\	6 5	[4b\	[4dd\	[4B\	su-	4dd\	.	.	.
=66	=66	=66	=66	=66	=66	=66	=66	=66	=66
2A\	4 9	4b\]	4dd\]	4B\]	.	4dd\	.	1ryy	1ryy
.	5 8	2a/	2cc#\	2A\	-um	2cc#\	-um	.	.
4r	.	.	.	.	.	.	.	.	.
4A\	.	[4a/	[4cc#\	4A\	ex	4cc#\	ex	.	.
!	!	!	!	!	!	!LO:LB:g=original	!	!	!
=67	=67	=67	=67	=67	=67	=67	=67	=67	=67
4F#\	6 4	4a/]	4cc#\]	4A\	jp-	4cc#\	ip-	1ryy	1ryy
4E\	5 #	2g#/	2b\	4G#\	-sis	4b\	-sis	.	.
4r	.	.	.	4r	.	4r	.	.	.
!	!	!	!	!LO:LB:g=original	!	!	!	!	!
4E\	5 #	4b/	4gg#\	4G#\	non	4b\	non	.	.
=68	=68	=68	=68	=68	=68	=68	=68	=68	=68
4E\	6 4	4cc#\	4aa\	4A\	con-	4cc#\	n(on)	1ryy	1ryy
4E\	5 #	4b\	4gg#\	4G#\	-fon-	4b\	n(on)	.	.
4E\	6 4	4cc#\	4aa\	4A\	-den-	4cc#\	con-	.	.
4E\	5 #	4b\	4gg#\	4G#\	-tur	4b\	-fun-	.	.
=69	=69	=69	=69	=69	=69	=69	=69	=69	=69
4E\	6 4	4cc#\	4aa\	4A\	non	4cc#\	-de-	1ryy	1ryy
4E\	5 #	4b\	4gg#\	4G#\	.	4b\	-tur	.	.
4r	.	2r	2r	4r	.	4r	.	.	.
4C#/	6	.	.	4c#\	non	4ee\	non	.	.
=70	=70	=70	=70	=70	=70	=70	=70	=70	=70
4D\	9 7	00r	00r	4c#\	Con-	4ee\	con-	1ryy	1ryy
4D\	8_ 6_	.	.	4B\	-fon-	4dd\	-fun-	.	.
4E\	.	.	.	4B\	-den-	4dd\	-de-	.	.
4E\	X X	.	.	4B\	-tur	4dd\	-tur	.	.
=71	=71	=71	=71	=71	=71	=71	=71	=71	=71
4F#\	6 4	.	.	4B\	Cu(m)	4dd\	cu(m)	1ryy	1ryy
4F#\	5 -n	.	.	4A\	lo-	4cc#\	lo-	.	.
!LO:LB:g=original	!	!	!	!	!	!	!	!	!
4C#/	6	.	.	4A\	-que-	4cc#\	-quae-	.	.
4AA/	.	.	.	4A\	-tur	4cc#\	-tur	.	.
=72	=72	=72	=72	=72	=72	=72	=72	=72	=72
4E\	#	.	.	4G#\	i-	4b\	i-	1ryy	1ryy
4E\	.	.	.	4G#\	-ni-	4b\	-ni-	.	.
4A\	.	.	.	4A\	-mi-	4cc#\	-mi-	.	.
4AA/	.	.	.	4A\	-cis	4cc#\	-cis	.	.
=73	=73	=73	=73	=73	=73	=73	=73	=73	=73
4F#\	6_	.	.	(4F#\	su-	2dd\	su-	1ryy	1ryy
4G#\	.	.	.	4G#\	.	.	.	.	.
4A\	X	.	.	4A\)	-is	4cc#\	-js	.	.
4AA/	.	.	.	4A\	in	4cc#\	in	.	.
=74	=74	=74	=74	=74	=74	=74	=74	=74	=74
4E\	4	0r	0r	(2E\	por-	1b	por-	1ryy	1ryy
4D\	5	.	.	.	.	.	.	.	.
4E\	#	.	.	2EE/)	.	.	.	.	.
4EE/	.	.	.	.	.	.	.	.	.
=75	=75	=75	=75	=75	=75	=75	=75	=75	=75
2AA/	.	.	.	2AA/	-ta	2a\	-ta	1ryy	1ryy
2r	.	.	.	2r	.	2r	.	.	.
!	!	!	!LO:LB:g=original	!	!	!	!	!	!
=76	=76	=76	=76	=76	=76	=76	=76	=76	=76
4F#\	-n	4f#/	4f#/	2A\	Glo-	00r	.	1ryy	1ryy
4G#\	.	4g#/	4g#/	.	.	.	.	.	.
4A\	.	4a/	4a/	4A\	-ri-	.	.	.	.
4F#\	.	4f#/	4f#/	4A\	-a	.	.	.	.
!	!	!LO:LB:g=original	!	!	!	!	!	!	!
=77	=77	=77	=77	=77	=77	=77	=77	=77	=77
4C#/	#	4c#/	4c#/	2G#\	Pa-	.	.	1ryy	1ryy
4D#X/	.	4d#X/	4d#X/	.	.	.	.	.	.
4E#X/	6	4e#X/	4e#X/	2G#\	-tri	.	.	.	.
4C#/	.	4c#/	4c#/	.	.	.	.	.	.
!	!	!	!	!LO:LB:g=original	!	!	!	!	!
=78	=78	=78	=78	=78	=78	=78	=78	=78	=78
4Dn/	.	4dn/	4dn/	2F#\	Glo-	.	.	1ryy	1ryy
4D/	.	4d/	4d/	.	.	.	.	.	.
4BB/	6	4B/	4B/	4G#\	-ri-	.	.	.	.
4BB/	-n	4B/	4B/	4F#\	-a	.	.	.	.
=79	=79	=79	=79	=79	=79	=79	=79	=79	=79
4C#/	#	4c#/	4c#/	2E#X\	Fi-	.	.	1ryy	1ryy
4D#X/	.	4d#X/	4d#X/	.	.	.	.	.	.
4E#X/	6	4e#X/	4e#X/	4E#\	-li-	.	.	.	.
4C#/	.	4c#/	4c#/	4E#\	-o	.	.	.	.
=80	=80	=80	=80	=80	=80	=80	=80	=80	=80
4E#X\	6	4e#X/	4e#X/	2.G#\	et	00r	.	1ryy	1ryy
4D#X\	.	4d#X/	4d#X/	.	.	.	.	.	.
4E#\	.	4e#X/	4e#X/	.	.	.	.	.	.
4C#/	.	4c#/	4c#/	4G#\	Spi-	.	.	.	.
=81	=81	=81	=81	=81	=81	=81	=81	=81	=81
4F#\	.	4f#/	4f#/	2A\	-ri-	.	.	1ryy	1ryy
4G#\	.	4g#/	4g#/	.	.	.	.	.	.
!LO:TX:a:t=P:problem=dźwięk zamazany	!	!	!	!	!	!	!	!	!
4A\yy	.	4a/	4a/	4F#\	-tu-	.	.	.	.
!LO:LB:g=original	!	!	!	!	!	!	!	!	!
4B\	.	4b/	4b/	4F#\	-j	.	.	.	.
=82	=82	=82	=82	=82	=82	=82	=82	=82	=82
4c#\	4	4cc#\	4cc#\	(2F#\	San-	.	.	1ryy	1ryy
4B\	.	4b\	4b\	.	.	.	.	.	.
4c#\	#	4cc#\	4cc#\	2E#X\)	.	.	.	.	.
4C#/	.	4c#/	4c#/	.	.	.	.	.	.
=83	=83	=83	=83	=83	=83	=83	=83	=83	=83
2F#\	.	2f#/	2f#/	2F#\	-cto	.	.	1ryy	1ryy
2r	.	2r	2r	2r	.	.	.	.	.
=84	=84	=84	=84	=84	=84	=84	=84	=84	=84
[<1A	-n	1a	1a	2r	.	1a	Si-	1ryy	1ryy
.	.	.	.	[2A\	ſi-	.	.	.	.
!	!	!	!	!	!	!LO:LB:g=original	!	!	!
=85	=85	=85	=85	=85	=85	=85	=85	=85	=85
2A\]	6 4	1b	1b	2A\]	.	1b	-cut	1ryy	1ryy
2G#\	-n	.	.	2G#\	-cut	.	.	.	.
.	5	.	.	.	.	.	.	.	.
=86	=86	=86	=86	=86	=86	=86	=86	=86	=86
2A\	.	4cc#\	4cc#\	4A\	e-	4cc#\	e-	1ryy	1ryy
.	.	2a/	2a/	4A\	-at	4a\	-rat	.	.
4r	.	.	.	4r	.	4a\	in	.	.
4F#\	-n	(8dd\L	(8dd\L	(4G#\	in	8dd\L	prin-	.	.
.	5	8cc#\J)	8cc#\J)	.	.	8cc#\J	.	.	.
=87	=87	=87	=87	=87	=87	=87	=87	=87	=87
4F#\	4_ 2_	4b/	4b/	4F#\)	.	4b\	-ci-	1ryy	1ryy
8G#\L	.	2g#/	2g#/	(8G#\L	prin-	4g#\	-pi-	.	.
8F#\J	X X	.	.	8F#\J)	.	.	.	.	.
[2E\	6	.	.	4E\	-ci-	4g#\	-o	.	.
.	.	(8cc#\L	(8cc#\L	4E\	-pi-	(8cc#\L	et	.	.
.	5	8b\J)	8b\J)	.	.	8b\J)	.	.	.
!	!	!	!LO:LB:g=original	!	!	!	!	!	!
=88	=88	=88	=88	=88	=88	=88	=88	=88	=88
4E\]	4_ 2_	4a/	4a/	4E\	-o	4a\	nunc	1ryy	1ryy
8F#\L	X X	2f#/	2f#/	(8F#\L	et	4f#/	et	.	.
8E\J	.	.	.	8E\J)	.	.	.	.	.
!	!	!	!	!LO:LB:g=original	!	!	!	!	!
*	*	*	*	*	*	*	*ij	*	*
[<2D\	3	.	.	4D\	nunc	4f#/	nunc	.	.
*	*	*	*	*	*	*	*Xij	*	*
.	6	8d/L	(8b/L	4D\	et	8b\L	.	.	.
.	.	8c#/J	8a/J)	.	.	8a\J	et	.	.
!	!	!LO:LB:g=original	!	!	!	!	!	!	!
=89	=89	=89	=89	=89	=89	=89	=89	=89	=89
4D\]	4_ 2_	4B/	4g#/	4D\	ſem-	4g#/	Sem-	1ryy	1ryy
8E\L	.	2e/	2e/	(8E\L	.	2e/	.	.	.
8D\J	X X	.	.	8D\J)	.	.	.	.	.
4C#/	.	.	.	4C#/	.	.	.	.	.
4BB/	.	(8f#/L	8f#/L	4BB/	.	8f#/L	.	.	.
.	.	8g#/J)	8g#/J	.	.	8g#/J	.	.	.
=90	=90	=90	=90	=90	=90	=90	=90	=90	=90
4C#/	.	4a/	4a/	4C#/	.	2a\	.	1ryy	1ryy
4AA/	.	2a/	4a/	4AA/	-per	.	.	.	.
2r	.	.	4cc#\	2r	.	4cc#\	.	.	.
.	.	4f#/	4dd#X\	.	.	4dd#X\	.	.	.
=91	=91	=91	=91	=91	=91	=91	=91	=91	=91
1E	#	4g#/	4ee\	2.E\	et	2ee\	-per	1ryy	1ryy
.	.	4a/	4ee\	.	.	.	.	.	.
.	.	4b/	4gg#\	.	.	4ee\	et	.	.
.	.	4b/	4ee\	4E\	in	4ee\	in	.	.
!LO:LB:g=original	!	!	!	!	!	!	!	!	!
=92	=92	=92	=92	=92	=92	=92	=92	=92	=92
1F#	7	2.a/	4ee\	2F#\	ſae-	2ee\	Sae-	1ryy	1ryy
.	6\	.	8dd#X\L	.	.	.	.	.	.
.	.	.	8cc#\J	.	.	.	.	.	.
.	.	.	2dd#X\	4F#\	-cu-	2dd#X\	-cu-	.	.
.	.	4a/	.	4F#\	-la	.	.	.	.
=93	=93	=93	=93	=93	=93	=93	=93	=93	=93
4G#\	6_	4b/	2ee\	4G#\	ſae-	2ee\	-la	1ryy	1ryy
2E\	.	2g#/	.	4E\	-cu-	.	.	.	.
.	X	.	4r	4E\	-lo-	4r	.	.	.
!	!	!	!	!LO:TX:a:t=P:problem=przeprawiona ćwierćnuta E	!	!	!	!	!
8A\L	.	4e/	4cc#\	(8A\L	-rum	4cc#\	Sae-	.	.
8G#\J	.	.	.	8G#\J)	.	.	.	.	.
=94	=94	=94	=94	=94	=94	=94	=94	=94	=94
!	!	!	!	!	!	!LO:TX:b:t=P:problem=przekreślone "-cu-"	!	!	!
4F#\	-n	2f#/	4cc#\	4F#\	a-	4cc#\	.	1ryy	1ryy
!	!	!	!	!	!	!LO:LB:g=original	!	!	!
2D#X\	6_ 5	.	8dd#X\L	2D#X\	.	(8dd#X\L	-cu-	.	.
.	x_ 4_	.	8cc#\J	.	.	8cc#\J)	.	.	.
.	.	[2g#/	[2b\	.	.	[2b\	-lo-	.	.
8G#\L	X X	.	.	8G#\L	.	.	.	.	.
8F#\J	.	.	.	(8F#\J	.	.	.	.	.
=95	=95	=95	=95	=95	=95	=95	=95	=95	=95
4E\	x #	2g#/]	4b\]	4E\)	-men	4b\]	.	1ryy	1ryy
2C#/	6_ 5	.	8cc#\L	2C#/	a-	(8cc#\L	-rum	.	.
.	x_ 4_	.	8b\J	.	.	8b\J)	.	.	.
.	.	[2f#/	[2a/	.	.	[2a\	a-	.	.
8F#\L	X X	.	.	8F#\L	.	.	.	.	.
8E\J	.	.	.	8E\J	.	.	.	.	.
=96	=96	=96	=96	=96	=96	=96	=96	=96	=96
4D#X/	6 5	2f#/]	4a/]	4D#X/	.	4a\]	.	1ryy	1ryy
2BB/	8	.	8b/L	2BB/	.	8b\L	.	.	.
.	.	.	8a/J	.	.	8a\J	.	.	.
.	4	4e/	4g#/	.	.	4g#/	.	.	.
8C#/L	6_	4f#/	4f#/	8C#/L	.	4f#/	.	.	.
8D#X/J	X	.	.	8D#X/J	.	.	.	.	.
=97	=97	=97	=97	=97	=97	=97	=97	=97	=97
2E\	#	4g#X/	4g#/	2E\	.	4g#\	.	1ryy	1ryy
.	5	4ff#\	4gg#\	.	.	4ee\	.	.	.
.	6_	.	.	.	.	.	.	.	.
4F#\	X	4dd\	4aa\	4F#\	.	4ddn\	.	.	.
4G#\	.	4b\	4bb\	4G#\	.	4b\	-men	.	.
!	!	!	!LO:LB:g=original	!LO:LB:g=original	!	!	!	!	!
=98	=98	=98	=98	=98	=98	=98	=98	=98	=98
!LO:TX:a:t=P:problem=dziwna klamerka między taktami, przekreślone cyfrowanie	!	!	!	!	!	!	!	!	!
2A\	.	2cc#\	1aa	2A\	-men	1a	Si-	1ryy	1ryy
2A\	.	2aa\	.	2A\	ſi-	.	.	.	.
=99	=99	=99	=99	=99	=99	=99	=99	=99	=99
2A\	4 2	1bb	1bb	2A\	.	1b	-cut	1ryy	1ryy
.	6	.	.	.	.	.	.	.	.
2G#\	5	.	.	2G#\	-cut	.	.	.	.
=100	=100	=100	=100	=100	=100	=100	=100	=100	=100
2A\	.	4ccc#\	4ccc#\	4A\	e-	4cc#\	e-	1ryy	1ryy
.	.	2aa\	2aa\	4A\	-rat	4a\	-rat	.	.
4r	.	.	.	4r	.	4a\	in	.	.
4F#\	6	4aa\	8ddd\L	[4F#\	in	(8dd\L	prin-	.	.
.	5_	.	8ccc#\J	.	.	8cc#\J)	.	.	.
=101	=101	=101	=101	=101	=101	=101	=101	=101	=101
4F#\	4_ 2_	4bb\	4bb\	4F#\]	.	4b\	-ci-	1ryy	1ryy
!	!	!LO:LB:g=original	!	!	!	!	!	!	!
8G#\L	.	2gg#\	2gg#\	8G#\L	prin-	4g#\	-pi-	.	.
8F#\J	X X	.	.	8F#\J	.	.	.	.	.
2E\	6	.	.	4E\	-ci-	4g#\	-o	.	.
.	5	4gg#\	(8ccc#\L	[4E\	-pi-	(8cc#\L	et	.	.
.	.	.	8bb\J)	.	.	8b\J)	.	.	.
!LO:LB:g=original	!	!	!	!	!	!	!	!	!
=102	=102	=102	=102	=102	=102	=102	=102	=102	=102
4E\	4_ 2_	4aa\	4aa\	4E\]	-o	4a\	nunc	1ryy	1ryy
8F#\L	.	2ff#\	2ff#\	8F#\L	et	4f#\	et	.	.
8E\J	.	.	.	8E\J	.	.	.	.	.
[<2D\	3	.	.	4D\	nunc	4f#\	nunc	.	.
.	-n5	4ff#\	(8bb\L	4D\	et	(8b\L	et	.	.
.	.	.	8aa\J)	.	.	8a\J)	.	.	.
=103	=103	=103	=103	=103	=103	=103	=103	=103	=103
4D\]	4_ 2_	2.ee\	4gg#\	4D\	ſem-	4g#/	Sem-	1ryy	1ryy
!	!	!	!	!	!	!LO:LB:g=original	!	!	!
8E\L	X X	.	2ee\	(8E\L	.	2e/	.	.	.
8D\J	.	.	.	8D\J)	.	.	.	.	.
4C#/	.	.	.	4C#/	.	.	.	.	.
4BB/	.	(8ff#\L	(8ff#\L	4BB/	.	8f#/L	.	.	.
.	.	8gg#\J)	8gg#\J)	.	.	8g#/J	.	.	.
=104	=104	=104	=104	=104	=104	=104	=104	=104	=104
4C#/	6	2aa\	4aa\	4C#/	.	2a\	-per	1ryy	1ryy
4AA/	.	.	4aa\	4AA/	-per	.	.	.	.
4A\	.	4a/	4a/	4A\	er	4cc#\	et	.	.
4A\	.	4aa\	[<4ccc#\	4A\	in	4cc#\	in	.	.
=105	=105	=105	=105	=105	=105	=105	=105	=105	=105
4A\	.	4ee\	4ccc#\]	4A\	ſae-	4cc#\	Sae-	1ryy	1ryy
.	6	.	.	.	.	.	.	.	.
4G#\	.	2gg#\	4bb\	8G#\	-cu-	8b\	-cu-	.	.
.	.	.	.	8G#\	-la	8b\	-la	.	.
4E\	#	.	(8bb\L	4E\	ſae-	(8b\L	Sae-	.	.
.	.	.	8ccc#\J)	.	.	8cc#\J)	.	.	.
4E\	7	[4bb\	[4ddd\	4E\	-cu-	4dd\	-cu-	.	.
=106	=106	=106	=106	=106	=106	=106	=106	=106	=106
2A\	4 9	4bb\]	4ddd\]	4A\	-lo-	4cc#\	-lo-	1ryy	1ryy
.	3 8	4aa\	2ccc#\	4A\	-rum	4cc#\	-rum	.	.
4r	.	[2ee\	.	4r	.	4r	.	.	.
4A\	.	.	4ee\	4A\	a-	4ee\	a-	.	.
!	!	!	!	!LO:LB:g=original	!	!	!	!	!
=107	=107	=107	=107	=107	=107	=107	=107	=107	=107
4d\	.	4ee\]	2.ff#\	4d\	.	2.ff#\	.	1ryy	1ryy
4D/	.	(8dd\L	.	4D/	.	.	.	.	.
.	.	8cc#\J)	.	.	.	.	.	.	.
4F#\	6	[2dd\	.	4F#\	.	.	.	.	.
4D\	.	.	8ggn\L	4D/	.	8ggn\L	-men	.	.
.	.	.	8ff#\J	.	.	8ff#\J	.	.	.
=108	=108	=108	=108	=108	=108	=108	=108	=108	=108
4A\	4	4dd\]	1eeT	2A\	.	[1ee	a-	1ryy	1ryy
.	3	.	.	.	.	.	.	.	.
4A\	.	(8cc#\L	.	.	.	.	.	.	.
.	.	8b\J)	.	.	.	.	.	.	.
4c#\	6	4cc#\	.	4c#\	.	.	.	.	.
4A\	.	(8dd\L	.	4A\	.	.	.	.	.
.	.	8ee\J)	.	.	.	.	.	.	.
=109	=109	=109	=109	=109	=109	=109	=109	=109	=109
4d\	9 3	2.ff#\	4ee\	4d\	.	4ee\]	.	1ryy	1ryy
4D\	.	.	8dd\L	4D/	.	8dd\L	.	.	.
.	.	.	8cc#\J	.	.	8cc#\J	.	.	.
4F#\	6	.	[2dd\	4F#\	.	[2dd\	.	.	.
4D\	.	8ggn\L	.	4D\	.	.	.	.	.
.	.	8ff#\J	.	.	.	.	.	.	.
!	!	!	!LO:LB:g=original	!	!	!	!	!	!
=110	=110	=110	=110	=110	=110	=110	=110	=110	=110
!	!	!	!LO:TX:a:t=P:problem=brak zakończenia ligatury	!	!	!	!	!	!
4A\	4	2.ee\	4dd\]	4A\	.	4dd\]	.	1ryy	1ryy
4AA/	.	.	8cc#\L	4AA/	.	8cc#\L	.	.	.
.	.	.	8b\J	.	.	8b\J	.	.	.
4C#/	6	.	[2cc#\	4C#/	.	[2cc#\	.	.	.
4AA/	.	(8ff#\L	.	4AA/	.	.	.	.	.
.	.	8ee\J)	.	.	.	.	.	.	.
!LO:LB:g=original	!	!	!	!	!	!	!	!	!
=111	=111	=111	=111	=111	=111	=111	=111	=111	=111
4BB/	9 -n	2.dd\	4cc#\]	4BB/	.	4cc#\]	.	1ryy	1ryy
4B\	8_	.	8b\L	4B\	.	8b\L	.	.	.
.	.	.	8a\J	.	.	8a\J	.	.	.
4G#\	.	.	[2b\	4G#\	.	2b\	.	.	.
!	!	!LO:LB:g=original	!	!	!	!	!	!	!
4E\	X	(8ee\L	.	4E\	.	.	.	.	.
.	.	8dd\J)	.	.	.	.	.	.	.
!	!	!	!	!	!	!LO:LB:g=original	!	!	!
=112	=112	=112	=112	=112	=112	=112	=112	=112	=112
4A\	9 3	4cc#\	4b\]	4A\	.	4b\	.	1ryy	1ryy
4AA/	.	2a/	8a\L	4AA/	.	8a\L	.	.	.
.	.	.	8g#\J	.	.	8g#\J	.	.	.
4C#/	6	.	4a\	4C#/	.	4a\	.	.	.
4AA/	.	[4a/	[4cc#\	4AA/	.	4cc#\	.	.	.
=113	=113	=113	=113	=113	=113	=113	=113	=113	=113
4E\	6 4	4a/]	4cc#\]	4E\	.	4cc#\	.	1ryy	1ryy
4E\	5_ #_	4g#/	4b\	4E\	-men	4b\	-men	.	.
4r	.	4r	4r	4r	.	4r	.	.	.
4E\	X X	4b/	4gg#\	4E\	a-	(4b\	a-	.	.
=114	=114	=114	=114	=114	=114	=114	=114	=114	=114
4A\	.	4cc#\	4aa\	4A\	.	4cc#\)	.	1ryy	1ryy
4C#/	6 5	4cc#\	2aa\	4C#/	.	4cc#\	-men	.	.
4D\	6 5	2b\	.	4D/	.	2b\	a-	.	.
4E\	#	.	4gg#\	4E/	.	.	.	.	.
=115	=115	=115	=115	=115	=115	=115	=115	=115	=115
2AA/	.	2cc#\	2aa\	2AA/	-men	2a\	-men	1ryy	1ryy
2E\	#	2b\	2gg#\	2E\	a-	2b\	a-	.	.
=116	=116	=116	=116	=116	=116	=116	=116	=116	=116
1AA	.	2cc#\	2aa\	1AA	-men	2cc#\	-men	1ryy	1ryy
.	.	2r	2r	.	.	2r	.	.	.
==	==	==	==	==	==	==	==	==	==
*-	*-	*-	*-	*-	*-	*-	*-	*-	*-
!!!system-decoration: [g1][g2][g3]s7
!!!RDF**kern: < = below
!!!RDF**kern: | = vertical stroke
!!!ENC: Marta Lawrence
!!!END: 2020-11-06
!!!ENC: Krzysztof Stępień
!!!END: 2020-05-26
!!!YEC: Copyright 2022 Narodowy Instytut Fryderyka Chopina (https://polishscores.org)
!!!YEM: Licence CC BY 4.0 (https://creativecommons.org/licenses/by/4.0)
